!!!OTL: 558a. Lieben bringt gross Freud.
!!!ARE: Europa, Mitteleuropa, Deutschland, Schwaben
!!!SCT: E0558
!!!TXL: @@DE
!!!YEM: Copyright 1995, estate of Helmut Schaffrath.
**kern	**text
*ICvox	*
*M4/4	*
*met(c)	*
*k[f#]	*
*G:	*
!LO:TX:a:t=Einfach und innig.	!
!LO:TX:a:t=Schwäb. Volksweiſe.	!
{4d	Das
=1	=1
4.g	Lie-
8a	-ben
4b	bringt
8ccL	groß
8eeJ	.
=2	=2
2dd	Freud,
4r}	.
{8gL	es
8bJ	.
=3	=3
4dd	wiſ-
4dd	-ſes
4cc	al-
8ddL	-le
8ccJ	.
=4	=4
2b	Leut;
4r}	.
{8gL	weiß
8bJ	.
=5	=5
4dd	mir
4dd	ein
4dd	ſchö-
8eeL	-nes
8ddJ	.
=6	=6
8ddL	Schä-
8ccJ	.
8ccL	-tʒe-
8bJ	.
4cc}	-lein,
{4dd	mit
=7	=7
4b	ʒwei
4b	ſchwarʒbrau-
8bL	.
8ddJ	.
8ccL	-nen
8bJ	.
=8	=8
8aL	Aeu-
8f#J	.
8f#L	-ge-
8gJ	.
4a}	-lein,
{8gL	die
8aJ	.
=9	=9
2b	mir,
4r	.
8ccL	die
8eeJ	.
=10	=10
2dd	mir,
4r}	.
{8gL	die
8bJ	.
=11	=11
4dd	mir
4dd	mein
4cc	Herʒ
8ddL	er-
8ccJ	.
=12	=12
2b	-freut.
4r}	.
==	==
!!!AGN: Liebes - Lied
!!!ONB: ESAC (Essen Associative Code) Database: ERK1
!!!AMT: simple quadruple
!!!AIN: vox
!!!EED: Helmut Schaffrath
!!!EEV: 1.0
!!!GTL: Liebeslieder [Neuere (aus dem 18. bis 19. Jahrh.) - Liebeslust]
!!!URL-scan: https://rosdok.uni-rostock.de/mcrviewer/recordIdentifier/rosdok_ppn745177662/iview2/phys_0387.iview2?x=-128.77276441889308&y=2287.16890885029&scale=0.5870222003877485&rotation=0&layout=singlePageLayout
!!!ENC: Anna Maria Matuszewska
!!!EEV: 2024/10/12
*-	*-
